X:1
T:103 - Jesus Vindo
T:Letra: Stuart Edmund McNair (1867-1959)
T:Música: J. Foster
M:6/4
L:1/4
Q:1/4=120
K:Eb
V:1
E | "Eb"G2B "Cm"e2e | "Bb"d2d "Ab"c2"(Bb7)"c | "Eb"B2G ("Bb"BA)F | ("Bb7"A3"Eb"G2) B | "Eb"e2e "Bb"d2d | "Ab"c2c "Eb"B2G | "(Bb)"B2"(Eb)"G ("Bb7"BA)F | "Eb"E2- "Ab"E- "Eb"E2 |]
w: 1.~Je-sus des-ceu, a Bí-bliao diz, Do seu ce-les_te lar,_ A fim deo gran-dea-mor de Deus Aos ho-mens de_cla-rar.__
w: 2.~Je-sus mor-reu, a Bí-bliao diz, E fez ex-pi_a-ção_ Do nos-so mal, eas-sim a-chou Um mei-o de_ per-dão.__
w: 3.~A Bí-blia diz que res-sur-giu, Da mor-te ven_ce-dor,_ E des-dea-go-ra po-de ser O nos-so Sal_va-dor.__
w: 4.~A Bí-blia diz que vol-ta-rá, A fim de nos_ le-var,_ Do mun-doe da tris-te-zaa-qui, Ao seu ben-di_to lar.__
w: 5.~A Bí-blia diz-nos que Je-sus No mun-do rei_na-rá;_ En-tão, Se-nhor u-ni-ver-sal, lou-vor sem fim_ te-rá.__
W: 
W:
W: 1. Jesus desceu, a Bíblia o diz,
W: Do seu celeste lar,
W: A fim de o grande amor de Deus
W: Aos homens declarar.
W: 
W: 2. Jesus morreu, a Bíblia o diz,
W: E fez expiação
W: Do nosso mal, e assim achou
W: Um meio de perdão.
W: 
W: 3. A Bíblia diz que ressurgiu,
W: Da morte vencedor,
W: E desde agora pode ser
W: O nosso Salvador.
W: 
W:
W:
W: 4. A Bíblia diz que voltará,
W: A fim de nos levar,
W: Do mundo e da tristeza aqui,
W: Ao seu bendito lar.
W: 
W: 5. A Bíblia diz-nos que Jesus
W: No mundo reinará;
W: Então, Senhor universal,
W: louvor sem fim terá.
W:         
W: 





